source/img/icons/card.svg

<svg fill="none" height="50" viewBox="0 0 50 50" width="50" xmlns="http://www.w3.org/2000/svg"><circle cx="25" cy="25" fill="#fff" r="25"/><g fill="#82ca9e"><path d="m13.6091 22.3396c-.1725-.0994-.3852-.0989-.5556.0016l-.2864.1663c-1.0505.6128-1.4129 1.9742-.8063 3.0341l.8899 1.5564c.0998.176.2864.2798.4818.2798.0477 0 .0954-.006.1432-.0185.2431-.0652.4123-.2857.4123-.5378v-3.9995c0-.1988-.1063-.383-.2789-.4824z"/><path d="m20.0897 19.434h14.119c.1986 0 .3809-.1053.4808-.2771.0998-.1716.0998-.3835.0011-.5557l-2.7043-4.7296c-.5849-1.0235-1.9945-1.407-3.0167-.8138l-9.1598 5.3391c-.2171.1266-.3223.3831-.2561.6259.0651.2428.2853.4112.536.4112z"/><path d="m36.1112 20.5551h-18.8889c-1.225 0-2.2222.9966-2.2222 2.2222v12.2222c0 1.2256.9972 2.2223 2.2222 2.2223h18.8889c1.225 0 2.2222-.9967 2.2222-2.2223v-12.2222c0-1.2256-.9972-2.2222-2.2222-2.2222zm-14.444 4.4539c1.2251 0 2.2223.9974 2.2223 2.2239 0 1.2266-.9973 2.224-2.2223 2.224-1.2251 0-2.2223-.9974-2.2223-2.224 0-1.2265.9972-2.2239 2.2223-2.2239zm4.4446 7.8185c0 .594-.4981 1.0772-1.1111 1.0772h-6.667c-.6131 0-1.1112-.4832-1.1112-1.0772v-.2542c0-.7394.4308-1.4067 1.1253-1.7412.7769-.3735 1.9825-.8193 3.3194-.8193 1.3368 0 2.5424.4458 3.3193.8193.6945.3345 1.1253 1.0018 1.1253 1.7412zm9.4438-1.1613h-6.6669c-.3071 0-.5556-.2485-.5556-.5556 0-.307.2485-.5555.5556-.5555h6.6669c.3071 0 .5556.2485.5556.5555 0 .3071-.2485.5556-.5556.5556zm.001-3.3333h-8.8892c-.3071 0-.5556-.2485-.5556-.5556s.2485-.5556.5556-.5556h8.8892c.3071 0 .5556.2485.5556.5556s-.2485.5556-.5556.5556z"/></g></svg>

<svg width="50" height="50" viewBox="0 0 50 50" fill="none" xmlns="http://www.w3.org/2000/svg">
<circle cx="25" cy="25" r="25" fill="white"/>
<path d="M13.6091 22.3396C13.4366 22.2402 13.2239 22.2407 13.0535 22.3412L12.7671 22.5075C11.7166 23.1203 11.3542 24.4817 11.9608 25.5416L12.8507 27.098C12.9505 27.274 13.1371 27.3778 13.3325 27.3778C13.3802 27.3778 13.4279 27.3718 13.4757 27.3593C13.7188 27.2941 13.888 27.0736 13.888 26.8215V22.822C13.888 22.6232 13.7817 22.439 13.6091 22.3396Z" fill="#82CA9E"/>
<path d="M20.0897 19.434H34.2087C34.4073 19.434 34.5896 19.3287 34.6895 19.1569C34.7893 18.9853 34.7893 18.7734 34.6906 18.6012L31.9863 13.8716C31.4014 12.8481 29.9918 12.4646 28.9696 13.0578L19.8098 18.3969C19.5927 18.5235 19.4875 18.78 19.5537 19.0228C19.6188 19.2656 19.839 19.434 20.0897 19.434Z" fill="#82CA9E"/>
<path d="M36.1112 20.5551H17.2223C15.9973 20.5551 15.0001 21.5517 15.0001 22.7773V34.9995C15.0001 36.2251 15.9973 37.2218 17.2223 37.2218H36.1112C37.3362 37.2218 38.3334 36.2251 38.3334 34.9995V22.7773C38.3334 21.5517 37.3362 20.5551 36.1112 20.5551ZM21.6672 25.009C22.8923 25.009 23.8895 26.0064 23.8895 27.2329C23.8895 28.4595 22.8922 29.4569 21.6672 29.4569C20.4421 29.4569 19.4449 28.4595 19.4449 27.2329C19.4449 26.0064 20.4421 25.009 21.6672 25.009ZM26.1118 32.8275C26.1118 33.4215 25.6137 33.9047 25.0007 33.9047H18.3337C17.7206 33.9047 17.2225 33.4215 17.2225 32.8275V32.5733C17.2225 31.8339 17.6533 31.1666 18.3478 30.8321C19.1247 30.4586 20.3303 30.0128 21.6672 30.0128C23.004 30.0128 24.2096 30.4586 24.9865 30.8321C25.681 31.1666 26.1118 31.8339 26.1118 32.5733V32.8275ZM35.5556 31.6662H28.8887C28.5816 31.6662 28.3331 31.4177 28.3331 31.1106C28.3331 30.8036 28.5816 30.5551 28.8887 30.5551H35.5556C35.8627 30.5551 36.1112 30.8036 36.1112 31.1106C36.1112 31.4177 35.8627 31.6662 35.5556 31.6662ZM35.5566 28.3329H26.6674C26.3603 28.3329 26.1118 28.0844 26.1118 27.7773C26.1118 27.4702 26.3603 27.2217 26.6674 27.2217H35.5566C35.8637 27.2217 36.1122 27.4702 36.1122 27.7773C36.1122 28.0844 35.8637 28.3329 35.5566 28.3329Z" fill="#82CA9E"/>
</svg>
